X: 40531
T: Tommy Maguire's
R: jig
M: 6/8
K: Dmajor
DCD ABA|GFG ABA|DED D2 d|=cAG EG=C|
DA,A, AFA|GFG ABc|d2 e edc|dec dcA:|
d2 a gfe|fdB BAB|dfa gfe|edB A2 B|
[1 dfa gfe|edB GFG|(3EFG E gfg|edB A2:|
[2 d3 faf|gec dcA|dfa gfe|fdB A3||

